; HEADER_BLOCK_START
; generated by OrcaSlicer 1.9.1 on 2024-03-08 at 12:23:23
; total layer number: 192
; filament_density: 1.24
; filament_diameter: 1.75
; max_z_height: 48.00
; HEADER_BLOCK_END

; THUMBNAIL_BLOCK_START

;
; THUMBNAIL_BLOCK_END

; external perimeters extrusion width = 0.48mm
; perimeters extrusion width = 0.50mm
; infill extrusion width = 0.55mm
; solid infill extrusion width = 0.55mm
; top infill extrusion width = 0.55mm
; first layer extrusion width = 0.55mm

; EXECUTABLE_BLOCK_START
EXCLUDE_OBJECT_DEFINE NAME=3DBenchy.stl_id_0_copy_0 CENTER=175,175 POLYGON=[[145,165.816],[145.002,165.755],[145.007,165.699],[145.012,165.646],[145.014,165.63],[145.02,165.583],[145.028,165.525],[145.046,165.436],[145.058,165.379],[145.074,165.322],[145.081,165.296],[145.097,165.239],[145.126,165.155],[145.141,165.118],[145.162,165.064],[145.169,165.047],[145.186,165.01],[145.209,164.958],[145.231,164.916],[145.264,164.854],[145.278,164.827],[145.291,164.806],[145.34,164.727],[145.357,164.7],[145.371,164.679],[145.405,164.631],[145.44,164.584],[145.484,164.531],[145.508,164.501],[145.539,164.466],[145.578,164.423],[145.592,164.408],[145.6,164.4],[145.641,164.359],[145.661,164.34],[145.704,164.3],[145.737,164.271],[145.783,164.234],[145.793,164.225],[145.828,164.197],[145.887,164.154],[145.935,164.121],[145.979,164.092],[146.044,164.052],[146.071,164.036],[146.124,164.008],[146.148,163.995],[146.175,163.981],[146.197,163.97],[146.253,163.944],[146.312,163.919],[146.362,163.899],[146.417,163.879],[146.429,163.875],[146.472,163.861],[146.485,163.857],[146.541,163.84],[146.548,163.838],[146.584,163.828],[146.597,163.825],[146.625,163.818],[146.641,163.814],[146.71,163.799],[146.739,163.794],[146.769,163.789],[146.798,163.784],[174.812,159.886],[175.055,159.853],[175.299,159.821],[175.543,159.791],[175.882,159.752],[176.105,159.728],[176.35,159.702],[176.596,159.678],[176.842,159.656],[177.087,159.635],[177.253,159.622],[177.333,159.616],[177.523,159.602],[177.579,159.598],[177.826,159.581],[177.987,159.571],[178.071,159.566],[178.232,159.557],[178.489,159.544],[178.597,159.539],[178.619,159.538],[178.755,159.532],[178.906,159.526],[179.05,159.521],[179.167,159.517],[179.233,159.515],[179.342,159.512],[179.46,159.509],[179.548,159.507],[179.689,159.504],[179.881,159.501],[180.062,159.499],[180.18,159.498],[180.578,159.498],[180.934,159.5],[181.369,159.508],[181.45,159.51],[181.805,159.52],[181.912,159.524],[182.24,159.537],[182.677,159.558],[183.009,159.578],[183.092,159.583],[183.202,159.59],[183.375,159.602],[183.495,159.611],[183.641,159.622],[183.728,159.629],[183.909,159.644],[184.04,159.655],[184.832,159.78],[184.841,159.782],[185.269,159.888],[185.377,159.915],[185.595,159.97],[185.737,160.007],[185.813,160.027],[185.967,160.068],[186.248,160.145],[186.424,160.195],[186.68,160.27],[186.896,160.334],[187.111,160.4],[187.332,160.47],[187.558,160.543],[187.752,160.607],[188.008,160.694],[188.178,160.753],[188.232,160.772],[188.4,160.832],[188.601,160.905],[188.822,160.987],[189.033,161.067],[189.233,161.145],[189.343,161.188],[189.443,161.228],[189.453,161.232],[189.662,161.316],[189.871,161.402],[189.927,161.425],[190.134,161.513],[190.341,161.603],[190.547,161.693],[190.957,161.879],[191.16,161.974],[191.363,162.07],[191.565,162.168],[191.766,162.267],[191.967,162.367],[192.166,162.469],[192.366,162.572],[192.563,162.677],[192.762,162.783],[192.957,162.89],[193.153,162.999],[193.348,163.11],[193.543,163.221],[193.737,163.334],[193.93,163.449],[194.123,163.565],[194.314,163.683],[194.505,163.801],[194.696,163.922],[194.885,164.043],[195.075,164.167],[195.262,164.291],[195.451,164.417],[195.637,164.544],[195.824,164.673],[196.008,164.803],[196.193,164.934],[196.376,165.067],[196.56,165.201],[196.742,165.337],[196.923,165.474],[197.104,165.612],[197.284,165.752],[197.463,165.893],[197.642,166.036],[197.82,166.18],[197.998,166.325],[198.173,166.472],[198.523,166.77],[198.697,166.921],[198.87,167.074],[199.042,167.228],[199.214,167.384],[199.328,167.489],[199.498,167.645],[199.665,167.803],[199.832,167.962],[199.996,168.122],[200.161,168.283],[200.325,168.445],[200.486,168.609],[200.647,168.773],[200.807,168.939],[200.966,169.106],[201.124,169.274],[201.282,169.443],[201.438,169.614],[201.592,169.785],[201.745,169.958],[201.898,170.132],[202.05,170.306],[202.2,170.483],[202.349,170.66],[202.498,170.838],[202.645,171.017],[202.791,171.198],[202.936,171.38],[203.081,171.563],[203.223,171.747],[203.364,171.932],[203.505,172.118],[203.645,172.305],[203.784,172.493],[203.921,172.683],[204.056,172.874],[204.192,173.065],[204.325,173.258],[204.458,173.452],[204.589,173.647],[204.618,173.692],[204.651,173.745],[204.682,173.798],[204.713,173.852],[204.742,173.907],[204.769,173.962],[204.819,174.076],[204.834,174.117],[204.856,174.175],[204.876,174.233],[204.895,174.292],[204.912,174.351],[204.929,174.413],[204.943,174.47],[204.954,174.53],[204.966,174.593],[204.975,174.652],[204.984,174.713],[204.991,174.774],[204.995,174.836],[204.998,174.905],[205,174.966],[205,175.027],[204.999,175.088],[204.996,175.149],[204.992,175.209],[204.986,175.27],[204.977,175.331],[204.968,175.391],[204.958,175.449],[204.945,175.512],[204.932,175.569],[204.916,175.632],[204.901,175.686],[204.883,175.745],[204.863,175.803],[204.842,175.861],[204.82,175.918],[204.797,175.974],[204.771,176.03],[204.744,176.086],[204.716,176.14],[204.686,176.194],[204.655,176.248],[204.623,176.301],[204.589,176.353],[204.472,176.527],[204.339,176.721],[204.206,176.914],[204.071,177.106],[203.936,177.297],[203.797,177.487],[203.659,177.676],[203.52,177.864],[203.38,178.05],[203.237,178.236],[203.095,178.42],[202.95,178.604],[202.659,178.968],[202.51,179.148],[202.361,179.328],[202.21,179.506],[202.06,179.683],[201.907,179.86],[201.752,180.035],[201.597,180.209],[201.482,180.337],[201.325,180.509],[201.167,180.68],[201.008,180.85],[200.848,181.018],[200.688,181.186],[200.526,181.352],[200.2,181.68],[200.034,181.841],[199.869,182.002],[199.703,182.161],[199.535,182.319],[199.367,182.475],[199.199,182.63],[199.028,182.784],[198.857,182.937],[198.686,183.089],[198.512,183.239],[198.338,183.388],[198.164,183.536],[197.987,183.682],[197.811,183.827],[197.632,183.971],[197.454,184.114],[197.275,184.256],[197.093,184.396],[196.911,184.535],[196.728,184.673],[196.544,184.81],[196.359,184.945],[196.173,185.08],[195.799,185.344],[195.611,185.474],[195.421,185.603],[195.23,185.731],[195.039,185.857],[194.846,185.982],[194.653,186.106],[194.458,186.228],[194.263,186.349],[194.067,186.469],[193.869,186.587],[193.672,186.704],[193.472,186.819],[193.272,186.934],[193.072,187.046],[192.87,187.158],[192.595,187.307],[192.395,187.412],[192.196,187.516],[191.996,187.618],[191.796,187.719],[191.595,187.818],[191.392,187.916],[191.19,188.012],[190.987,188.107],[190.783,188.2],[190.579,188.292],[190.374,188.383],[190.169,188.472],[189.963,188.559],[189.756,188.645],[189.666,188.682],[189.549,188.73],[189.341,188.813],[189.122,188.898],[189.003,188.944],[188.704,189.057],[188.493,189.134],[188.293,189.206],[188.071,189.284],[187.884,189.348],[187.869,189.353],[187.656,189.424],[187.443,189.494],[187.207,189.57],[187.005,189.632],[186.979,189.64],[186.751,189.709],[186.523,189.776],[186.295,189.841],[186.142,189.884],[186.065,189.905],[185.924,189.943],[185.707,190.001],[185.606,190.027],[185.488,190.057],[185.269,190.112],[184.843,190.218],[184.316,190.319],[184.306,190.32],[184.05,190.344],[184.003,190.348],[183.81,190.364],[183.725,190.371],[183.561,190.384],[183.481,190.39],[183.134,190.414],[182.688,190.441],[182.649,190.443],[182.264,190.462],[182.126,190.468],[181.778,190.481],[181.564,190.487],[181.344,190.493],[180.907,190.5],[180.522,190.502],[180.177,190.502],[179.877,190.499],[179.821,190.498],[179.599,190.494],[179.457,190.491],[179.338,190.488],[179.166,190.483],[179.076,190.48],[178.93,190.475],[178.752,190.468],[178.728,190.467],[178.57,190.46],[178.463,190.455],[178.332,190.448],[178.133,190.437],[177.889,190.423],[177.644,190.407],[177.629,190.406],[177.342,190.385],[177.096,190.366],[176.849,190.345],[176.667,190.328],[176.603,190.322],[176.423,190.305],[176.179,190.28],[176.111,190.273],[175.935,190.254],[175.619,190.218],[175.373,190.188],[175.204,190.166],[174.882,190.124],[146.827,186.22],[146.792,186.215],[146.743,186.207],[146.686,186.196],[146.653,186.189],[146.597,186.175],[146.584,186.172],[146.548,186.162],[146.536,186.159],[146.481,186.142],[146.429,186.125],[146.417,186.121],[146.362,186.101],[146.312,186.081],[146.253,186.056],[146.197,186.03],[146.155,186.009],[146.105,185.982],[146.086,185.972],[146.044,185.948],[145.993,185.917],[145.979,185.908],[145.944,185.885],[145.935,185.879],[145.887,185.846],[145.847,185.817],[145.84,185.811],[145.793,185.775],[145.756,185.744],[145.749,185.738],[145.704,185.7],[145.661,185.66],[145.641,185.64],[145.592,185.592],[145.557,185.555],[145.539,185.534],[145.519,185.511],[145.481,185.466],[145.445,185.42],[145.431,185.402],[145.41,185.374],[145.407,185.37],[145.373,185.322],[145.357,185.3],[145.342,185.278],[145.308,185.224],[145.278,185.173],[145.25,185.122],[145.231,185.084],[145.218,185.06],[145.195,185.012],[145.169,184.954],[145.148,184.903],[145.127,184.849],[145.109,184.793],[145.107,184.79],[145.09,184.738],[145.075,184.682],[145.06,184.625],[145.046,184.564],[145.035,184.507],[145.026,184.454],[145.025,184.448],[145.016,184.396],[145.012,184.353],[145.008,184.325],[145.002,184.245],[145,184.208],[145,184.179],[145,165.816]]
M73 P0 R11
;TYPE:Custom
START_PRINT
G28
G90
G1 X0 F9000
G1 Z0.600 F600
G1 Y0 F9000
START_PRINT
G90
G1 X0 F9000
G1 Z0.600 F600
G1 Y0 F9000
M400
G91
M83
M140 S65 ;set bed temp
M104 S235 ;set extruder temp
M190 S65 ;wait for bed temp
M109 S235;wait for extruder temp
G1 E25 F300
G4 P1000
G1 E-0.200 Z5 F600
G1 X88.000 F9000
G1 Z-5.000 F600
G1 X87.000 E20.88 F1800
G1 X87.000 E13.92 F1800
G1 Y1 E0.16 F1800
G1 X-87.000 E13.92 F1800
G1 X-87.000 E20.88 F1800
G1 Y1 E0.24 F1800
G1 X87.000 E20.88 F1800
G1 X87.000 E13.92 F1800
G1 E-0.200 Z1 F600
M400
G90
G21
M83 ; use relative distances for extrusion
; filament start gcode
M106 S0
;LAYER_CHANGE
;Z:0.25
;HEIGHT:0.25
TIMELAPSE_TAKE_FRAME
G92 E0
G1 E-.5 F1800
;_SET_FAN_SPEED_CHANGING_LAYER
SET_VELOCITY_LIMIT ACCEL=20000
SET_VELOCITY_LIMIT SQUARE_CORNER_VELOCITY=20
G1 X145.657 Y163.707 F42000
G1 Z.25
G1 E.5 F1800
;TYPE:Skirt
;WIDTH:0.55
G1 F3000
G1 X146.485 Y163.116 E.05147
G1 X147.482 Y162.584 E.0571
G1 X149.001 Y162.076 E.08099
G1 X149.995 Y161.909 E.05096
G1 X173.769 Y160.447 E1.20422
G1 X175.458 Y160.414 E.08544
G1 X177.977 Y160.611 E.12773
G1 X180.734 Y161.18 E.1423
G1 X183.401 Y162.106 E.14273
G1 X185.987 Y163.416 E.14659
G1 X188.324 Y165.023 E.14338
G1 X190.4 Y166.899 E.14148
G1 X192.225 Y169.044 E.14236
G1 X193.694 Y171.317 E.13684
G1 X194.289 Y172.758 E.07881
G1 X194.595 Y174.389 E.08392
G1 X194.613 Y175.305 E.04631
G1 X194.52 Y176.225 E.04675
G1 X194.1 Y177.789 E.08187
G1 X193.653 Y178.753 E.05372
G1 X193.012 Y179.822 E.06304
G1 X191.48 Y181.901 E.13054
G1 X189.881 Y183.617 E.1186
G1 X188.192 Y185.081 E.113
G1 X186.862 Y186.035 E.08275
G1 X184.838 Y187.221 E.11859
G1 X181.991 Y188.434 E.15647
G1 X179.623 Y189.095 E.12429
G1 X178.065 Y189.376 E.08003
G1 X176.229 Y189.559 E.09328
G1 X174.888 Y189.589 E.06784
G1 X149.834 Y188.075 E1.26896
G1 X148.139 Y187.679 E.088
G1 X146.63 Y186.976 E.08417
G1 X145.253 Y185.94 E.08715
G1 X144.411 Y185.024 E.06287
G1 X143.732 Y184.018 E.06138
G1 X143.321 Y183.182 E.04708
G1 X142.954 Y182.134 E.05613
G1 X142.734 Y181.085 E.05422
G1 X142.647 Y180.094 E.0503
G1 X142.66 Y169.601 E.5305
G1 X142.968 Y167.806 E.09204
G1 X143.608 Y166.211 E.08688
G1 X144.441 Y164.938 E.07694
G1 X145.629 Y163.736 E.08544
; printing object 3DBenchy.stl id:0 copy 0
G1 E-.35 F1800
;WIPE_START
G1 F3000
G1 X146.485 Y163.116 E-.0793
G1 X147.317 Y162.672 E-.0707
;WIPE_END
EXCLUDE_OBJECT_START NAME=3DBenchy.stl_id_0_copy_0
G1 X147.932 Y166.681 F42000
G1 E.5 F1800
;TYPE:Brim
G1 F4800
G1 X148.355 Y166.36 E.02685
G1 X148.902 Y166.048 E.03181
G1 X149.406 Y165.844 E.02751
G1 X149.958 Y165.696 E.02888
G1 X150.509 Y165.618 E.02814
G1 X173.992 Y164.185 E1.18946
G1 X175.3 Y164.155 E.06615
G1 X176.388 Y164.203 E.05504
G1 X177.361 Y164.305 E.04946
G1 X178.603 Y164.515 E.06368
G1 X179.639 Y164.761 E.05386
G1 X180.872 Y165.14 E.06521
G1 X181.852 Y165.515 E.05305
G1 X182.893 Y165.99 E.05784
G1 X183.985 Y166.581 E.06275
G1 X185.065 Y167.268 E.06471
G1 X185.925 Y167.899 E.05395
G1 X186.826 Y168.654 E.05944
G1 X187.647 Y169.438 E.05739
G1 X188.431 Y170.292 E.0586
G1 X189.166 Y171.205 E.05925
G1 X189.805 Y172.113 E.05616
G1 X190.174 Y172.7 E.03503
G1 X190.431 Y173.154 E.02637
G1 X190.679 Y173.751 E.03271
G1 X190.78 Y174.123 E.01949
G1 X190.855 Y174.577 E.02324
G1 X190.877 Y175.055 E.02418
G1 X190.845 Y175.504 E.0228
G1 X190.731 Y176.071 E.02923
G1 X190.565 Y176.555 E.02587
G1 X190.307 Y177.074 E.02929
G1 X189.826 Y177.854 E.04633
G1 X189.235 Y178.703 E.05232
G1 X188.547 Y179.573 E.05607
G1 X188.012 Y180.179 E.04089
G1 X187.219 Y180.984 E.05711
G1 X186.52 Y181.615 E.0476
G1 X185.836 Y182.17 E.04456
G1 X184.878 Y182.859 E.05964
G1 X183.874 Y183.483 E.05976
G1 X183.056 Y183.927 E.04705
G1 X182.558 Y184.172 E.02806
G1 X181.391 Y184.67 E.06417
G1 X180.849 Y184.868 E.02917
G1 X179.982 Y185.144 E.04599
G1 X178.721 Y185.46 E.06571
G1 X177.429 Y185.686 E.06633
G1 X176.543 Y185.784 E.04507
G1 X175.979 Y185.823 E.02859
G1 X174.822 Y185.845 E.05848
G1 X173.973 Y185.814 E.04298
G1 X150.604 Y184.389 E1.18368
G1 X150.228 Y184.351 E.01909
G1 X149.686 Y184.24 E.02795
G1 X149.279 Y184.112 E.0216
G1 X148.863 Y183.933 E.02289
G1 X148.464 Y183.711 E.02307
G1 X148.12 Y183.472 E.02119
G1 X147.722 Y183.125 E.02667
G1 X147.417 Y182.791 E.02287
G1 X147.128 Y182.399 E.02465
G1 X146.815 Y181.834 E.03265
G1 X146.594 Y181.256 E.03129
G1 X146.455 Y180.67 E.03046
G1 X146.392 Y180.078 E.03008
G1 X146.386 Y170.128 E.50306
G1 X146.401 Y169.77 E.01814
G1 X146.486 Y169.167 E.03076
G1 X146.593 Y168.744 E.02207
G1 X146.766 Y168.275 E.02526
G1 X146.961 Y167.877 E.02241
G1 X147.301 Y167.356 E.03146
G1 X147.638 Y166.961 E.02624
M73 P2 R11
G1 X147.903 Y166.709 E.01852
G1 X148.245 Y167.07 F42000
G1 F4800
G1 X148.261 Y167.055 E.00106
G1 X148.638 Y166.77 E.02391
G1 X149.11 Y166.501 E.02748
G1 X149.556 Y166.319 E.02434
G1 X150.049 Y166.185 E.02581
G1 X150.565 Y166.112 E.02637
G1 X174.01 Y164.681 E1.18755
G1 X175.3 Y164.652 E.06522
G1 X176.347 Y164.698 E.05297
G1 X177.298 Y164.797 E.04838
G1 X178.499 Y165 E.06157
G1 X179.513 Y165.241 E.05271
G1 X180.705 Y165.608 E.06305
G1 X181.656 Y165.971 E.05144
G1 X182.676 Y166.437 E.0567
G1 X183.738 Y167.012 E.06103
G1 X184.78 Y167.675 E.06247
G1 X185.615 Y168.287 E.05232
G1 X186.492 Y169.021 E.05782
G1 X187.289 Y169.782 E.05575
G1 X188.058 Y170.619 E.05745
G1 X188.772 Y171.507 E.05762
G1 X189.395 Y172.394 E.05479
G1 X189.978 Y173.361 E.05706
G1 X190.205 Y173.904 E.02975
G1 X190.292 Y174.222 E.01669
G1 X190.361 Y174.638 E.02131
G1 X190.379 Y175.057 E.02123
G1 X190.35 Y175.447 E.01976
G1 X190.248 Y175.951 E.02598
G1 X190.102 Y176.372 E.02253
G1 X189.869 Y176.838 E.02637
G1 X189.409 Y177.586 E.04437
G1 X188.839 Y178.404 E.0504
G1 X188.169 Y179.252 E.05464
G1 X187.646 Y179.843 E.03993
G1 X186.879 Y180.622 E.05526
G1 X186.194 Y181.24 E.04663
G1 X185.531 Y181.779 E.0432
G1 X184.598 Y182.449 E.05809
G1 X183.621 Y183.056 E.05814
G1 X182.831 Y183.485 E.04542
G1 X182.355 Y183.718 E.02684
G1 X181.204 Y184.21 E.06325
G1 X180.685 Y184.399 E.02794
G1 X179.851 Y184.665 E.04428
G1 X178.613 Y184.976 E.06452
G1 X177.354 Y185.195 E.06459
G1 X176.502 Y185.289 E.04337
G1 X175.96 Y185.326 E.02743
G1 X174.822 Y185.348 E.05755
G1 X173.995 Y185.318 E.04185
G1 X150.647 Y183.895 E1.18262
G1 X150.31 Y183.86 E.01711
G1 X149.819 Y183.761 E.02537
G1 X149.459 Y183.648 E.01905
G1 X149.075 Y183.483 E.02111
G1 X148.721 Y183.285 E.02051
G1 X148.42 Y183.074 E.0186
G1 X148.064 Y182.763 E.02391
G1 X147.796 Y182.469 E.02008
G1 X147.542 Y182.122 E.02178
G1 X147.271 Y181.634 E.02823
